X: 1
T: Con Cassidy's
M: 6/8
L: 1/8
R: jig
K: Amaj
e3 fec|eaf ecA|~c2 a eca|ecA Bcd|
e^de fec|eaf ecA|c=de Bcd|1cAG Acd:|2cAG A2 E||
Ace aga|eca ecA|~c2 a eca|ecA B2 E|
Ace ~a3|eca ecA|cde Bcd|cAG A2 E:|
